packages/core/src/svgs/tokens/mono/GRS.svg

<svg width="24" height="24" viewBox="0 0 24 24" fill="none" xmlns="http://www.w3.org/2000/svg">
<path d="M16.778 20.7874C15.3122 21.5857 13.6691 22.0028 11.9999 22C6.47685 22 2 17.5231 2 11.9999C2 6.47685 6.47685 2 11.9999 2C17.5231 2 22 6.47685 22 11.9999C22 15.3386 20.3637 18.295 17.8499 20.1112C17.4806 18.745 16.1562 18.1605 14.8437 18.0749C13.2244 17.9786 11.6062 17.9149 9.98745 17.7937H9.96878C9.28745 17.6499 9.08121 17.2313 9.43751 16.6374C9.60624 16.35 9.86874 16.1124 10.1062 15.8625C10.1624 15.8124 10.3125 15.8313 10.4124 15.8562C11.5375 16.125 12.6562 16.1375 13.7499 15.7499C15.0875 15.2749 16.0063 14.3687 16.3437 12.9624C16.5962 11.9237 16.3738 11.0606 15.9062 10.125H17.4312C17.4938 10.1187 17.5874 10.0812 17.6062 10.0437L18.1124 8.29997C18.1124 8.29997 17.4837 8.89184 17.0312 8.87496C16.5794 8.87934 15.0312 8.87496 15.0312 8.87496L16.3125 7.42498C17.2012 6.46435 18.3962 4.90998 17.3686 3.63748C16.9556 3.22437 16.3374 3.01874 16.3374 3.01874C16.3374 3.01874 15.8374 2.98749 15.5937 3.01874C14.7343 3.1425 14.1887 3.86936 14.0813 4.69373C14.0436 4.84435 14.2281 4.88749 14.3061 4.76248C14.5224 4.45998 14.6137 4.15498 14.9624 3.95124C15.2115 3.80827 15.5011 3.75265 15.7853 3.79319C16.0695 3.83373 16.332 3.96811 16.5313 4.17498C17.3768 5.09123 16.5893 6.54747 15.8937 7.29997C15.74 7.48123 14.8793 8.67746 14.6124 8.52496C13.8312 8.08122 12.9936 7.88122 12.0937 7.86248C10.3424 7.75122 8.50185 8.69121 7.73247 10.3006C7.18061 11.455 7.20747 12.9006 7.8531 14.0113C8.2331 14.6649 8.82809 15.1488 9.48243 15.5087C9.02185 15.9587 8.53434 16.3856 8.09996 16.8624C7.78747 17.2187 7.56873 17.6437 7.53747 18.1437C7.48123 18.8536 8.17997 19.2324 8.66247 19.6187L8.28247 20.0199C8.02996 20.2886 7.77684 20.5562 7.51872 20.8187C7.48123 20.8437 7.39373 20.8562 7.33122 20.8437C7.64185 21.0236 8.37435 21.3236 8.36747 21.32C8.6281 20.7786 8.96935 20.3105 9.35001 19.8437C9.39376 19.7811 9.51247 19.7562 9.59997 19.7562C11.4068 19.8749 13.2194 19.955 15.0249 20.0874C15.8018 20.1112 16.778 20.7874 16.778 20.7874Z" fill="white"/>
<path d="M13.4435 14.8191C12.8654 15.3628 11.9436 15.5009 11.2218 15.1828C10.2043 14.7347 9.76111 13.4878 9.64925 12.4629C9.44917 11.1241 9.56292 9.22789 11.0367 8.66284C12.8474 7.95596 13.9917 9.97907 14.1243 11.4941C14.2354 12.5591 14.3004 14.0128 13.4435 14.8191Z" fill="white"/>
</svg>

<svg xmlns="http://www.w3.org/2000/svg" width="24" height="24" fill="none" viewBox="0 0 24 24">
    <path fill="#fff" d="M16.778 20.787A9.96 9.96 0 0 1 12 22C6.477 22 2 17.523 2 12S6.477 2 12 2s10 4.477 10 10a9.99 9.99 0 0 1-4.15 8.111c-.37-1.366-1.694-1.95-3.006-2.036-1.62-.096-3.238-.16-4.857-.281H9.97c-.682-.144-.888-.563-.531-1.157.168-.287.43-.525.668-.774.056-.05.207-.032.306-.007 1.125.269 2.244.281 3.338-.106 1.338-.475 2.256-1.381 2.594-2.788.252-1.038.03-1.901-.438-2.837h1.525c.063-.006.156-.044.175-.081l.506-1.744s-.628.592-1.08.575c-.453.004-2 0-2 0l1.28-1.45c.89-.96 2.084-2.515 1.057-3.788-.413-.413-1.032-.618-1.032-.618s-.5-.032-.743 0c-.86.123-1.405.85-1.513 1.675-.037.15.147.193.225.068.216-.302.308-.607.656-.81a1.29 1.29 0 0 1 1.57.223c.845.916.057 2.372-.638 3.125-.154.181-1.015 1.377-1.282 1.225-.78-.444-1.618-.644-2.518-.663-1.752-.11-3.592.83-4.362 2.439-.551 1.154-.525 2.6.121 3.71.38.654.975 1.138 1.63 1.498-.461.45-.949.877-1.383 1.353-.313.357-.531.782-.563 1.282-.056.71.643 1.088 1.125 1.475l-.38.4q-.377.405-.763.8c-.038.025-.125.037-.188.025.31.18 1.043.48 1.036.476.261-.541.602-1.01.983-1.476.044-.063.162-.088.25-.088 1.807.119 3.62.199 5.425.331.777.024 1.753.7 1.753.7"/>
    <path fill="#fff" d="M13.444 14.82c-.579.543-1.5.68-2.222.363-1.018-.448-1.46-1.695-1.573-2.72-.2-1.339-.086-3.235 1.388-3.8 1.81-.707 2.955 1.316 3.087 2.831.111 1.065.176 2.519-.68 3.325"/>
</svg>
